X:1
T:O God of peace and pardoning love
T:O God of peace and pardoning love - Ashburton (Samuel Chapple)
C:Samuel Chapple
Z:p235, Thomas Hawkes,
Z:A Collection of Tunes,
Z:Watchet: (1833)
%%score [ 1 2 3 4 ]
L:1/8
M:4/4
K:F
V:1 treble nm="Soprano" snm="S."
V:2 treble nm="Alto" snm="A."
V:3 treble-8 transpose=-12 nm="Tenor" snm="T."
V:4 bass nm="Bass" snm="B."
V:1
 F2 | A2 B2 c2 f2 | (dc)(BA) (A2 G)G | (A>G) (B>A) c2 (d>c) | (cB)(AG) A3 A | G2 c2 A2 f2 | %6
w: O|might our ev- ’ry|work _ and _ word _ Ex-|press _ the _ tem- pers _|of _ our _ Lord, The|na- ture of our|
w: O|God of peace and|pard- * ’ning _ love, _ Whose|bo- * wels _ of com- *|pas- * sion _ move To|ev- ’ry sin- ful|
w: His|blood to all our|souls _ ap- * ply; _ (His|blood _ a- * lone can _|sanc- * ti- * fy, Which|first did for our|
 e2 d2 !fermata!c2 z c | c2 A2 d3 c | B2 A2 G2 z B | B2 G2 c3 B | A2 G2 F2 z F | B2 A2 d2 c2 | %12
w: Head a- bove; His|Spi- rit send in-|to our hearts, En-|grav- ing on our|in- most parts The|liv- ing law of|
w: child of man; Je-|sus, our Shep- herd|great and good, Who,|dy- ing, bought us|with his blood, Thou|hast brought back to|
w: sins a- tone;) The|cove- nant of re-|demp- tion seal; The|depth of love, of|God, re- veal; And|speak us per- fect-|
 (de) f2 (f2 !fermata!e)e | f2 c2 d2 (cB) | A2 G2 !fermata!F2 |] %15
w: ho- * liest love, _ the|liv- ing law of _|ho- liest love.|
w: life _ a- gain, _ thou|hast brought back to _|life a- gain.|
w: ed _ in one, _ and|speak us per- fect- *|ed in one.|
V:2
 C2 | F2 F2 F2 A2 | F2 (EF) (F2 E)E | F2 G2 A2 B2 | (AG)(FE) F3 F | C2 E2 F2 A2 | %6
w: O|might our ev- ’ry|work and _ word _ Ex-|press the tem- pers|of _ our _ Lord, The|na- ture of our|
w: O|God of peace and|pard- ’ning _ love, _ Whose|bo- wels of com-|pas- * sion _ move To|ev- ’ry sin- ful|
w: His|blood to all our|souls ap- * ply; _ (His|blood a- lone can|sanc- * ti- * fy, Which|first did for our|
 G3 F !fermata!E2 z A | ^F2 F2 F3 A | G2 ^F2 G2 z G | E2 E2 E3 G | F2 E2 F2 z F | G2 F2 F2 F2 | %12
w: Head a- bove; His|Spi- rit send in-|to our hearts, En-|grav- ing on our|in- most parts The|liv- ing law of|
w: child of man; Je-|sus, our Shep- herd|great and good, Who,|dy- ing, bought us|with his blood, Thou|hast brought back to|
w: sins a- tone;) The|cove- nant of re-|demp- tion seal; The|depth of love, of|God, re- veal; And|speak us per- fect-|
 G2 A2 (A2 !fermata!G)G | F2 F2 F3 G | F2 E2 !fermata!F2 |] %15
w: ho- liest love, _ the|liv- ing law of|ho- liest love.|
w: life a- gain, _ thou|hast brought back to|life a- gain.|
w: ed in one, _ and|speak us per- fect-|ed in one.|
V:3
 A2 | c2 c2 c2 c2 | (Bc) c2 c3 c | c2 B2 (Ac) f2 | f2 c2 c3 c | c2 G2 A2 F2 | %6
w: O|might our ev- ’ry|work _ and word Ex-|press the tem- * pers|of our Lord, The|na- ture of our|
w: O|God of peace and|pard- * ’ning love, Whose|bo- wels of _ com-|pas- sion move To|ev- ’ry sin- ful|
w: His|blood to all our|souls _ ap- ply; (His|blood a- lone _ can|sanc- ti- fy, Which|first did for our|
 c2 =B2 !fermata!c2 z c | A2 A2 A3 ^F | G2 c2 B2 z G | G2 G2 G3 E | F2 B2 A2 z A | c2 c2 B2 c2 | %12
w: Head a- bove; His|Spi- rit send in-|to our hearts, En-|grav- ing on our|in- most parts The|liv- ing law of|
w: child of man; Je-|sus, our Shep- herd|great and good, Who,|dy- ing, bought us|with his blood, Thou|hast brought back to|
w: sins a- tone;) The|cove- nant of re-|demp- tion seal; The|depth of love, of|God, re- veal; And|speak us per- fect-|
 (Bc) c2 !fermata!c3 c | c2 A2 B2 (cd) | c2 (cB) !fermata!A2 |] %15
w: ho- * liest love, the|liv- ing law of _|ho- liest _ love.|
w: life _ a- gain, thou|hast brought back to _|life a- * gain.|
w: ed _ in one, and|speak us per- fect- *|ed in _ one.|
V:4
 F,2 | F,2 G,2 A,2 F,2 | (B,A,)(G,F,) C3 B, | A,2 G,2 F,2 B,,2 | C,2 C,2 F,3 F, | E,2 C,2 F,2 D,2 | %6
w: O|might our ev- ’ry|work _ and _ word Ex-|press the tem- pers|of our Lord, The|na- ture of our|
w: O|God of peace and|pard- * ’ning _ love, Whose|bo- wels of com-|pas- sion move To|ev- ’ry sin- ful|
w: His|blood to all our|souls _ ap- * ply; (His|blood a- lone can|sanc- ti- fy, Which|first did for our|
 G,2 G,,2 !fermata!C,2 z A,, | D,2 D,2 D,3 D, | G,2 D,2 G,,2 z G,, | C,2 C,2 C,3 C, | %10
w: Head a- bove; His|Spi- rit send in-|to our hearts, En-|grav- ing on our|
w: child of man; Je-|sus, our Shep- herd|great and good, Who,|dy- ing, bought us|
w: sins a- tone;) The|cove- nant of re-|demp- tion seal; The|depth of love, of|
 F,2 C,2 F,,2 z F, | E,2 F,2 B,2 A,2 | %12
w: in- most parts The|liv- ing law of|
w: with his blood, Thou|hast brought back to|
w: God, re- veal; And|speak us per- fect-|
"^Emendations: Original order of staves alto, tenor, treble, bass; alto part originally notated an octave higher. Notes givenhere as crotchets on beat 3 of the treble and alto parts in bars 2 and 12 are given in the original as small notes.Two texts from the Collection of Hymns for the Use of the People Called Methodists are indicated in the original for usewith this tune: hymn 438 (set here), and hymn 489 (\"How good and pleasant ’tis to see, when brethren cordially agree\").The tune is given the title Ashburton and attributed to ‘Sam. Chapple’ in the source: this is presumably SamuelChapple of Ashburton (1775-1833), although the tune is not found in any of his own three known published collections ofchurch music." G,2 F,2 !fermata!C3 B, | %13
w: ho- liest love, the|
w: life a- gain, thou|
w: ed in one, and|
 A,2 F,2 B,2 (A,B,) | C2 C,2 !fermata!F,2 |] %15
w: liv- ing law of _|ho- liest love.|
w: hast brought back to _|life a- gain.|
w: speak us per- fect- *|ed in one.|

